X: 25967
T: May Day Shores
R: jig
M: 6/8
K: Bminor
FBB cBd|fBg fed|e2c A(3Bcd|e3 edc|
FBB cBd|fBg fed|a3 eaf|fge fdB|
F2B cBd|fzg fed|e2c A(3Bcd|e3 efa|
bff afe|fcc Bcd|ecA EFA|B2 B Bcd||
e3 edc|e3 edc|d e2 edc|e3 g2e|
f2B F(3Bcd|fdB Ffg|fdB FBd|f3 fed|
e2c A(3Bcd|eza ecA|eaa ecA|e3 g2e|
fdB F(3Bcd|ecA Eec|dcB EFA|B2 B BAG||

